X: 69
T: Hei duanzi kan jian
L: 1/8
M: 2/4
K: D
A B f/ d f/ [I:setbarnb 1]| 
B> d B/ A/ F | 
A B f/ d f/ | 
B> dB2 | 
A B f/ d f/ | 
B> d B/ A/ F | 
D/ E/ F B/ d/ A | 
F4 | 
A B f/ d f/ | 
B> d B/ A/ F | 
D/ E/ F B/ d/ A | 
F> AF2 | 
F> d B A/ A/ | 
B F E F | 
B B, E/ F/ D | 
B,4 | 
F> D E B, | 
A> dB2 | 
D/ E/ F E/ F/ D | 
B,4 |]

@@@ Tune index: 8737
